outputs/icons/audio_video/volume_up_sharp.svg

<svg xmlns="http://www.w3.org/2000/svg" width="1200" height="1200" fill="none"><g clip-path="url(#a)"><path fill="#000" d="M150 449.999V750h200l250 250V199.999l-250 250zM825 600c0-88.5-51-164.501-125-201.501V801c74-36.5 125-112.5 125-201M700 161.499v103c144.5 43 250 177 250 335.501S844.5 892.5 700 935.5v103C900.5 993 1050 814 1050 600c0-214.001-149.5-393.001-350-438.501"/></g><defs><clipPath id="a"><path fill="#fff" d="M0 0h1200v1200H0z"/></clipPath></defs></svg>

<svg width="1200" height="1200" viewBox="0 0 1200 1200" fill="none" xmlns="http://www.w3.org/2000/svg"><g clip-path="url(#clip0_124_1150)"><path d="M150 449.999V750H350L600 1000V199.999L350 449.999H150ZM825 600C825 511.5 774 435.499 700 398.499V801C774 764.5 825 688.5 825 600ZM700 161.499V264.499C844.5 307.499 950 441.499 950 600C950 758.5 844.5 892.5 700 935.5V1038.5C900.5 993 1050 814 1050 600C1050 385.999 900.5 206.999 700 161.499Z" fill="#1D1E23"/></g><defs><clipPath id="clip0_124_1150"><path width="24" fill="white" d="M0 0H1200V1200H0V0z"/></clipPath></defs></svg>
